X:6332
T:Sullied Gardens, The
T:Silly Gardens, The
O:england
M:6/8
L:1/8
C:Chris Corrigan
R:Jig
K:G
|GDG BAG|dBe dBA|dBd efg|dBA GED|GDG BAG|dBe dBA|dBd efg|1 dBA G2 D:|2 d
BA G2B||
dgg gfg|dgg bag|eaa aga|bag edB|dgg gfg|dgg gfe|dBd efg |1 dBA G2 B:|2 d
BA G2 D||


